!!!!SEGMENT: pl-kk--kk-i-382--025-002_anonim--nro-10-credo.krn
!!!cenid: 18xx:1505
!!!COM: Anonim
!!!COM-rismid: pe30004985
!!!CDT:
!!!CNT:
!!!OTL: Nro 10 Credo
!!!PDT:
!!!AGN: Sacred
!!!SMS-siglum: PL-Kk
!!!SMS-shelfmark: Kk.I.382
!!!SMS-shelfwork: 025-002
!!!SMS-variant:
!!!SMS-altvar:
!!!NIFC-rismid: 1001139157
!!!URL-scan: http://repozytorium.nifc.pl/skany/pl-kk-nut--i-382
!!!ONB-nifc: UWAGA: obsada: S (T 1), A (B 1), T 2, B 2; S (T 1): skan 0026-0027; A (B 1): skan 0172-0174; T 2: skan 0097-0098; B 2: skan 0244-0245
**kern	**text	**dynam	**kern	**text	**kern	**text	**kern	**text
*part4	*part4	*part4	*part3	*part3	*part2	*part2	*part1	*part1
*staff4	*staff4	*	*staff3	*staff3	*staff2	*staff2	*staff1	*staff1
*I"Basso II	*	*	*I"Tenore II	*	*I"Alto vel Basso I	*	*I"Soprano vel Tenore I.	*
*I'B 2	*	*	*I'T 2	*	*I'A (B 1)	*	*I'S (T 1)	*
*clefF4	*	*	*clefC4	*	*clefC3	*	*clefC1	*
*k[b-]	*	*	*k[b-]	*	*k[b-]	*	*k[b-]	*
*M4/4	*	*	*M4/4	*	*M4/4	*	*M4/4	*
*met(C.)	*	*	*met(C.)	*	*met(C.)	*	*met(C.)	*
=1	=1	=1	=1	=1	=1	=1	=1	=1
*2\right	*	*	*2\right	*	*2\right	*	*2\right	*
!LO:TX:t=P:problem:all\right:global	!	!	!LO:TX:t=P:problem:all\right:global	!	!LO:TX:t=P:problem:all\right:global	!	!LO:TX:t=P:problem:all\right:global	!
!LO:TX:a:t=P:problem:w źródle ta adnotacja zapisana przed pierwszym taktem, na pięciolinii	!	!	!LO:TX:a:t=P:problem:w źródle ta adnotacja zapisana przed pierwszym taktem, na pięciolinii	!	!LO:TX:a:t=P:problem:w źródle ta adnotacja zapisana przed pierwszym taktem, na pięciolinii	!	!LO:TX:a:t=P:problem:w źródle ta adnotacja zapisana przed pierwszym taktem, na pięciolinii	!
!LO:TX:a:i:t=Credo.	!	!	!LO:TX:a:i:t=Credo	!	!LO:TX:a:i:t=Credo.	!	!LO:TX:a:i:t=Credo	!
4F\	Pa-	.	4c\	Pa-	4a\	Pa-	4ff\	Pa-
8F\	-trem	.	8c\	-trem	8a\	-trem	8cc\	-trem
8F\	om-	.	8B-\	om-	8b-\	om-	8dd\	om-
4F\	-ni-	.	4c\	-ni-	4a\	-ni-	4cc\	-ni-
4E\	-po-	.	4c\	-po-	4g\	-po-	4b-\	-po-
=2	=2	=2	=2	=2	=2	=2	=2	=2
4F\	-ten-	.	4c\	-ten-	4g\	-ten-	4b-\	-ten-
4F\	-tem	.	4c\	-tem	4f\	-tem	4a\	-tem
4r	.	.	4r	.	4r	.	4r	.
4F\	fac-	.	4c\	fac-	4f\	fa-	4a\	fac-
=3	=3	=3	=3	=3	=3	=3	=3	=3
4C/	-to-	.	4c\	-to-	4e\	-cto-	4g\	-to-
4C/	-rem	.	4c\	-rem	4f\	-rem	4a\	-rem
!LO:SIC:v:l:s=Cae-	!	!	!LO:SIC:v:l:s=cae-	!	!LO:SIC:v:l:s=Cae-	!	!LO:SIC:v:l:s=cae-	!
4C/	Ce-	.	4c\	ce-	(>8a\L	Ce-	(>8cc\L	ce-
.	.	.	.	.	8g\J)	.	8b-\J)	.
8C/	-li	.	8c\	-li	8f\	-li	8a\	-li
8C/	et	.	8c\	et	8e\	et	8g\	et
!LO:LB:g=original	!	!	!	!	!	!	!LO:LB:g=original	!
=4	=4	=4	=4	=4	=4	=4	=4	=4
!	!	!	!	!	!LO:SIC:v:l:s=-rae	!	!	!
4F\	ter-	.	(>8c\L	ter-	(>8f\L	ter-	(>8a\L	ter-
.	.	.	8B-\J)	.	8g\J)	.	8b-\J)	.
!LO:SIC:v:l:s=-rae	!	!	!LO:SIC:v:l:s=-rae	!	!	!	!LO:SIC:v:l:s=-rae	!
4F\	-re	.	4A\	-re	4a\	-re	4cc\	-re
!	!	!	!LO:LB:g=original	!	!	!	!	!
4r	.	.	4r	.	4r	.	4r	.
!	!	!	!	!	!LO:LB:g=original	!	!	!
8C/	vi-	.	8c\	vi-	8e\	vi-	8g\	vi-
8C/	-si-	.	8G/	-si-	8e\	-si-	8cc\	-si-
=5	=5	=5	=5	=5	=5	=5	=5	=5
4GG/	-bi-	.	4G/	-bi-	4e\	-bi-	4cc\	-bi-
8G\	-li-	.	8G/	-li-	8d\	-li-	8bn\	-li-
8G\	-um	.	8G/	-um	8e\	-um	8cc\	-um
4.G\	om-	.	4G/	om-	(>8g\L	om-	(>8ee\L	om-
.	.	.	.	.	8f\J)	.	8dd\J)	.
.	.	.	4G/	-ni-	(>8e\L	-ni-	(>8cc\L	-ni-
8G\	-ni-	.	.	.	8d\J)	.	8bn\J)	.
=6	=6	=6	=6	=6	=6	=6	=6	=6
2C/	-um	.	2G/	-um	2e\	-um	2cc\	-um
4GG/	et	.	4Bn\	et	4f\	et	4dd\	et
4BBn/	in-	.	4d\	in-	4g\	in-	4ff\	in-
=7	=7	=7	=7	=7	=7	=7	=7	=7
4C/	-vi-	.	4c\	-vi-	4g\	-vi-	4ee\	-vi-
4F\	-si-	.	4Bn\	-si-	(>8a\L	-si-	(>8ff\L	-si-
.	.	.	.	.	8f\J)	.	8dd\J)	.
4G\	-bi-	.	4G/	-bi-	4e\	-bi-	4cc\	-bi-
!LO:TX:a:t=P:problem:w źródle ta adnotacja zapisana za taktem 7, na pięciolinii	!	!	!	!	!	!	!	!
!LO:TX:b:i:t=V&colon; S&colon;	!	!	!	!	!	!	!	!
4GG/	-li-	.	4G/	-li-	4d\	-li-	4bn\	-li-
!LO:PB:g=original	!	!	!	!	!	!	!LO:LB:g=original	!
=8	=8	=8	=8	=8	=8	=8	=8	=8
2C/	-um	.	2G/	-um	2e\	-um,	2cc\	-um
!	!	!	!LO:LB:g=original	!	!	!	!	!
4C/	et	.	(>8G\L	et	4g\	et	(>8cc\L	et
.	.	.	8c\J)	.	.	.	8ee\J)	.
4GG/	in	.	(>8Bn\L	in	4g\	in	(>8dd\L	in
.	.	.	8d\J)	.	.	.	8ff\J)	.
!	!	!	!	!	!LO:LB:g=original	!	!	!
=9	=9	=9	=9	=9	=9	=9	=9	=9
4C/	u-	.	4c\	u-	4g\	u-	4ee\	u-
4G\	-num	.	4Bn\	-num	4g\	-num	4dd\	-num
4F\	Do-	.	(>8d\L	Do-	4g\	Do-	(>8ff\L	Do-
.	.	.	8c\J)	.	.	.	8ee\J)	.
8F\	-mi-	.	8B\	-mi-	8f\	-mi-	8dd\	-mi-
8F#X\	-num	.	8c\	-num	8e\	-num	8cc\	-num
=10	=10	=10	=10	=10	=10	=10	=10	=10
4G\	Je-	.	4G/	Je-	4d\	Je-	4bn\	Je-
4GG/	-sum	.	4G/	-sum	4e\	-sum	4cc\	-sum
(>8BBn/L	Chri-	.	2Bn\	Chri-	2f\	Chri-	2dd\	Chri-
8GG/	.	.	.	.	.	.	.	.
8AA/	.	.	.	.	.	.	.	.
8BB/J)	.	.	.	.	.	.	.	.
=11	=11	=11	=11	=11	=11	=11	=11	=11
2C/	-stum	.	2G/	-stum	2e\	-stum	2cc\	-stum
4c\	Fi-	.	4G/	fi-	4e\	fi-	4cc\	fi-
8c\	-li-	.	8G/	-li-	8e\	-li-	8cc\	-li-
!	!	!	!	!	!LO:N:vis=4	!	!	!
8c\	-um	.	8G/	-um	8e\	-um	8cc\	-um
!LO:LB:g=original	!	!	!LO:LB:g=original	!	!	!	!LO:LB:g=original	!
=12	=12	=12	=12	=12	=12	=12	=12	=12
2A\	De-	.	2A\	De-	2f#X\	De-	2cc\	De-
!	!	!	!	!	!LO:TX:a:t=P:problem:w źródle ta adnotacja zapisana za taktem 12, na pięciolinii	!	!	!
!	!	!	!	!	!LO:TX:b:t=V&colon; S&colon;	!	!	!
2G\	-i	.	2d\	-i	2g\	-i	2bn\	-i
!	!	!	!	!	!LO:PB:g=original	!	!	!
=13	=13	=13	=13	=13	=13	=13	=13	=13
4C/	u-	.	4d\	u-	4a\	u-	4cc\	u-
4D\	-ni-	.	4d\	-ni-	4g\	-ni-	4bn\	-ni-
4D\	-ge-	.	4d\	-ge-	4g\	-ge-	4cc\	-ge-
4D\	-ni-	.	4d\	-ni-	4f#X\	-ni-	4a\	-ni-
=14	=14	=14	=14	=14	=14	=14	=14	=14
2G\	-tum	.	2d\	-tum	2g\	-tum	2bn\	-tum
4G\	et	.	4G/	et	2r	.	4b\	et
4A\	ex	.	4A/	ex	.	.	4cc\	ex
=15	=15	=15	=15	=15	=15	=15	=15	=15
4Bn\	pa-	.	4Bn\	pa-	1r	.	4dd\	pa-
!	!	!	!	!	!LO:TX:a:t=1.	!	!	!
4c\	-tre	.	4c\	-tre	.	.	4ee\	-tre
2d\	na-	.	2d\	na-	.	.	2ff\	na-
=16	=16	=16	=16	=16	=16	=16	=16	=16
2c\	-tum	.	2c\	-tum	2r	.	2ee\	-tum
4C/	an-	.	4c\	an-	(>8e\L	an-	(>8gg\L	an-
.	.	.	.	.	8g\J)	.	8ee\J)	.
4E\	-te	.	4c\	-te	(>8a\L	-te	(>8cc\L	-te
.	.	.	.	.	8g\J)	.	8b-X\J)	.
!	!	!	!LO:LB:g=original	!	!	!	!LO:LB:g=original	!
=17	=17	=17	=17	=17	=17	=17	=17	=17
(>8F\L	om-	.	4.c\	om-	4.f\	om-	4.a\	om-
8C\J)	.	.	.	.	.	.	.	.
(<8AA/L	-ni-	.	.	.	.	.	.	.
8C/J)	.	.	8c\	-ni-	8f\	-ni-	8a\	-ni-
2F\	-a	.	2c\	-a	2f\	-a	2a\	-a
!LO:LB:g=original	!	!	!	!	!	!	!	!
=18	=18	=18	=18	=18	=18	=18	=18	=18
!LO:SIC:v:l:s=sae-	!	!	!LO:SIC:v:l:s=Sae-	!	!LO:SIC:v:l:s=Sae-	!	!LO:SIC:v:l:s=Sae-	!
2.F\	se-	.	2c\	Se-	(>4a\	Se-	(>4ff\	Se-
.	.	.	.	.	4g\)	.	4ee\)	.
!	!	!	!LO:SIC:v:l:s=-cu-	!	!	!	!	!
.	.	.	(>4Bn\	-ce-	(>4f\	-cu-	(>4dd\	-cu-
4F#X\	-cu-	.	4c\)	.	4e\)	.	4cc\)	.
=19	=19	=19	=19	=19	=19	=19	=19	=19
!LO:N:vis=4..	!	!	!	!	!	!	!	!
2G;>\	-la	.	4G/	-la	2d\	-la	4bn\	-la
.	.	.	4r	.	.	.	4r	.
2r	.	.	2r	.	2r	.	2r	.
=20	=20	=20	=20	=20	=20	=20	=20	=20
4G\	De-	.	(>8d\L	De-	4g\	De-	(>8ff\L	De-
.	.	.	8f\J)	.	.	.	8dd\J)	.
8G\	-um	.	8e\	-um	8g\	-um	8cc\	-um
8G\	de	.	8d\	de	8g\	de	8bn\	de
!	!	!	!	!	!LO:LB:g=original	!	!	!
(>8c\L	De-	.	4e\	De-	4g\	De-	4cc\	De-
8G\J)	.	.	.	.	.	.	.	.
(>8E\L	-o	.	4e\	-o	4e\	-o	4g\	-o
8C\J)	.	.	.	.	.	.	.	.
=21	=21	=21	=21	=21	=21	=21	=21	=21
4G\	lu-	.	(>8d\L	lu-	4g\	lu-	(>8ff\L	lu-
.	.	.	8f\J)	.	.	.	8dd\J)	.
8G\	-men	.	8e\	-men	8g\	-men	8cc\	-men
8G\	de	.	8d\	de	8g\	de	8bn\	de
!	!	!	!LO:LB:g=original	!	!	!	!LO:LB:g=original	!
(>8c\L	lu-	.	8e\	lu-	8g\	lu-	8cc\	lu-
8G\J)	.	.	8e\	-mi-	8g\	-mi-	8cc\	-mi-
8E\	-mi-	.	4e\	-ne	4e\	-ne	4g\	-ne
8C/	-ne	.	.	.	.	.	.	.
!LO:LB:g=original	!	!	!	!	!	!	!	!
=22	=22	=22	=22	=22	=22	=22	=22	=22
4F\	De-	.	4c\	De-	4f\	De-	(>8a\L	De-
.	.	.	.	.	.	.	8cc\J)	.
4G\	-um	.	(>8d\L	-um	4d\	-um	(>8bn\L	-um
!	!	!	!LO:SIC:v:s=8Bn	!	!	!	!	!
.	.	.	8B-X\J)	.	.	.	8dd\J)	.
4E\	ve-	.	4G/	ve-	4g\	ve-	(>8cc\L	ve-
.	.	.	.	.	.	.	8ee\J)	.
!LO:SIC:v:s=4BBn	!	!	!LO:SIC:v:s=8Bn	!	!	!	!	!
8BB-/	-rum	.	8B-\	-rum	8g\	-rum	8dd\	-rum
!LO:SIC:v:s=4BBn	!	!	!	!	!	!	!	!
8BB-/	de	.	8d\	de	8g\	de	8ff\	de
=23	=23	=23	=23	=23	=23	=23	=23	=23
4C/	De-	.	4c\	De-	(>8g\L	De-	(>8ee\L	De-
.	.	.	.	.	8e\J)	.	8cc\J)	.
4F\	-o	.	4A\	-o	(>8a\L	-o	(>8ff\L	-o
.	.	.	.	.	8f\J)	.	8dd\J)	.
(>4G\	ve-	.	2G/	ve-	(>4e\	ve-	(>4cc\	ve-
4GG/)	.	.	.	.	4d\)	.	4bn\)	.
!	!	!	!	!	!LO:LB:g=original	!	!	!
=24	=24	=24	=24	=24	=24	=24	=24	=24
!	!	!	!LO:TX:a:t=P:problem:w źródle ta adnotacja zapisana za 2G w takzie 24, na pięciolinii	!	!	!	!	!
!	!	!	!LO:TX:b:i:t=V&colon; S&colon;	!	!	!	!	!
!	!	!	!LO:TX:a:t=P:problem:w źródle na kolejnej stronie oryginalnie zbędnie ponowiona półnuta 2G i skreślona ołówkiem	!	!	!	!	!
2C/	-ro,	.	2G/	-ro,	2e\	-ro	2cc\	-ro,
!	!	!	!LO:LB:g=original	!	!	!	!	!
!LO:TX:a:t=P:problem:w źródle "p." zapisane na pięciolinii	!	!	!	!	!	!	!	!
!	!	!LO:DY:rj	!	!	!	!	!	!
!	!	!LO:DY:b:t=p.	!	!	!	!	!	!
8A\	ge-	p	8A\	ge-	8e\	ge-	8cc\	ge-
8c\	-ni-	.	8c\	-ni-	8e\	-ni-	8ee\	-ni-
8Bn\	-tum	.	8Bn\	-tum	8e\	-tum	8dd\	-tum
8A\	non	.	8A\	non	8e\	non	8cc\	non
!	!	!	!	!	!	!	!LO:LB:g=original	!
=25	=25	=25	=25	=25	=25	=25	=25	=25
4G#X\	fac-	.	4G#X/	fac-	4e\	fa-	4bn\	fa-
4G#\	-tum	.	4G#/	-tum	4e\	-ctum	4b\	-ctum
!LO:LB:g=original	!	!	!	!	!	!	!	!
8G#X\	con-	.	8G#/	con-	8e\	con-	8b\	con-
8Bn\	-sub-	.	8Bn/	-sub-	8e\	-sub-	8dd\	-sub-
8A\	-stan-	.	8A/	-stan-	8e\	-stan-	8cc\	-stan-
!LO:SIC:v:l:s=-ti-	!	!	!	!	!	!	!	!
8G#\	-ci-	.	8G#/	-ti-	8e\	-ti-	8b\	-ti-
=26	=26	=26	=26	=26	=26	=26	=26	=26
(>4A\	-a-	.	(<4A/	-a-	2.e\	-a-	(>4cc\	-a-
8G#X\L	.	.	8G#X/L	.	.	.	8bn\L	.
8A\J)	.	.	8A/J)	.	.	.	8cc\J)	.
!	!	!	!LO:SIC:v:s=4Bn	!	!	!	!	!
(>4Bn\	-lem	.	(>4B-\	-lem	.	.	(>4dd\	-lem
4A\)	.	.	4A\)	.	4e\	-lem	4cc\)	.
=27	=27	=27	=27	=27	=27	=27	=27	=27
4A\	pa-	.	4A/	pa-	4e\	pa-	4cc\	pa-
4G#X\	-tri	.	4G#X/	-tri	4e\	-tri	4bn\	-tri
!	!	!	!LO:LB:g=original	!	!LO:LB:g=original	!	!	!
!LO:TX:a:t=P:problem:w źródle "f." zapisane na pięciolinii	!	!	!	!	!	!	!	!
!	!	!LO:DY:rj	!	!	!	!	!	!
!	!	!LO:DY:b:t=f.	!	!	!	!	!	!
4E\	per	f	4G#X/	per	4e\	per	4b\	per
4E\	quem	.	4A/	quem	4e\	quem	4cc\	quem
=28	=28	=28	=28	=28	=28	=28	=28	=28
(>8E\L	om-	.	4.Bn\	om-	4.e\	om-	4.dd\	om-
8G#X\J)	.	.	.	.	.	.	.	.
(>8Bn\L	-ni-	.	.	.	.	.	.	.
8G#\J)	.	.	8A\	-ni-	8e\	-ni-	8cc\	-ni-
2E\	-a	.	2B\	-a	2e\	-a	2dd\	-a
!LO:LB:g=original	!	!	!	!	!	!	!LO:LB:g=original	!
=29	=29	=29	=29	=29	=29	=29	=29	=29
(>4A\	fa-	.	(>4A\	fa-	2.e\	fa-	(>4cc\	fa-
4D\)	.	.	8Bn\L	.	.	.	8dd\L	.
.	.	.	8G#X\J)	.	.	.	8bn\J)	.
2E\	-cta	.	(<4A/	-cta	.	.	(>4cc\	-cta
.	.	.	4G#/)	.	4e\	-cta	4b\)	.
=30	=30	=30	=30	=30	=30	=30	=30	=30
2AA/	sunt	.	2A\	sunt,	2e\	sunt,	2a\	sunt
2GGn/	qui	.	2Bn\	qui	2f\	pro-	2g\	qui
=31	=31	=31	=31	=31	=31	=31	=31	=31
(<4C/	pro-	.	2Gn/	pro-	4e\	-pter	4cc\	pro-
4BBn/)	.	.	.	.	4f\	nos	4dd\	-pter
4C/	-pter	.	4G/	-pter	(>8a\L	.	(>8ff\L	nos
.	.	.	.	.	8g\	.	8ee\	.
4F\	nos	.	4G/	nos	8f\	.	8dd\	.
.	.	.	.	.	8e\J)	.	8cc\J)	.
!	!	!	!LO:LB:g=original	!	!	!	!	!
=32	=32	=32	=32	=32	=32	=32	=32	=32
4.G\	ho-	.	4.G/	ho-	4.d\	ho-	4.bn\	ho-
8G\	-mi-	.	8G/	-mi-	8d\	-mi-	8b\	-mi-
!	!	!	!	!	!LO:LB:g=original	!	!	!
4G\	-nes	.	4G/	-nes	4d\	-nes	4b\	-nes
4G\	et	.	4G/	et	4d\	et	4b\	et
=33	=33	=33	=33	=33	=33	=33	=33	=33
4Bn\	pro-	.	4d\	pro-	4d\	pro-	4bn\	pro-
4A\	-pter	.	4c\	-pter	4e\	-pter	4cc\	-pter
!	!	!	!	!	!	!	!LO:LB:g=original	!
4G\	no-	.	4Bn\	no-	4f\	no-	4dd\	no-
!LO:LB:g=original	!	!	!	!	!	!	!	!
8A\	-stram	.	8c\	-stram	8e\	-stram	8cc\	-stram
8Bn\	sa-	.	8d\	sa-	8d\	sa-	8bn\	sa-
=34	=34	=34	=34	=34	=34	=34	=34	=34
4c\	-lu-	.	4G/	-lu-	4e\	-lu-	4cc\	-lu-
4G\	-tem	.	4G/	-tem	4d\	-tem	4bn\	-tem
4r	.	.	4r	.	4r	.	4r	.
!LO:TX:a:t=P:problem:w źródle "p." zapisane na pięciolinii	!	!	!	!	!	!	!	!
!	!	!LO:DY:rj	!	!	!	!	!	!
!	!	!LO:DY:b:t=p.	!	!	!	!	!	!
4GG/	de-	p	4G/	des-	4r	.	4g\	de-
=35	=35	=35	=35	=35	=35	=35	=35	=35
(>4G\	-scen-	.	(>4g\	-cen-	2r	.	(>4gg\	-scen-
4F\)	.	.	4f\)	.	.	.	4ff\)	.
4E\	-dit	.	4e\	-dit,	4r	.	4ee\	-dit
4GG/	de-	.	4G/	de-	4G/	des-	4dd\	de-
!	!	!	!LO:LB:g=original	!	!	!	!	!
=36	=36	=36	=36	=36	=36	=36	=36	=36
(>4G\	-scen-	.	(>4g\	-scen-	(>4g\	-cen-	(>4ee\	-scen-
4F\)	.	.	4f\)	.	4f\)	.	4dd\)	.
4E\	-dit,	.	4e\	-dit,	4e\	-dit	4cc\	-dit
4GG/	de-	.	4G/	de-	4d\	des-	4bn\	de-
!	!	!	!	!	!LO:LB:g=original	!	!	!
=37	=37	=37	=37	=37	=37	=37	=37	=37
!	!	!	!	!	!	!	!LO:TX:t=P:problem:w źródle brak taktu nr 37	!
(>4G\	-scen-	.	(>4g\	-scen-	(>4e\	-cen-	1ryy	.
4F\)	.	.	4f\)	.	4d\)	.	.	.
4E\	-dit,	.	4e\	-dit,	4c/	-dit	.	.
!	!	!	!	!	!LO:SIC:v:s=4Bn	!	!	!
!LO:TX:a:t=P:problem:w źródle "f." zapisane na pięciolinii	!	!	!	!	!	!	!	!
!	!	!LO:DY:rj	!	!	!	!	!	!
!	!	!LO:DY:b:t=f.	!	!	!	!	!	!
4GG/	de-	f	4d\	de-	4B-/	des-	.	.
!LO:LB:g=original	!	!	!	!	!	!	!	!
=38	=38	=38	=38	=38	=38	=38	=38	=38
(>4G\	-scen-	.	(>4e\	-scen-	(>4c\	-cen-	(>4cc\	-scen-
4F\)	.	.	4d\)	.	4d\)	.	4bn\)	.
4E\	-dit	.	4c\	-dit	4e\	-dit	4g\	-dit
4D\	de	.	4Bn\	de	4f\	de	4g\	de
!	!	!	!	!	!	!	!LO:LB:g=original	!
=39	=39	=39	=39	=39	=39	=39	=39	=39
!LO:SIC:v:l:s=cae-	!	!	!LO:SIC:v:l:s=cae-	!	!LO:SIC:v:l:s=Cae-	!	!LO:SIC:v:l:s=cae-	!
(>4C\	ce-	.	(>2c\	ce-	(>2e\	Ce-	1g	ce-
4E\	.	.	.	.	.	.	.	.
4G\	.	.	2Bn\)	.	2d\)	.	.	.
4GG/)	.	.	.	.	.	.	.	.
=40	=40	=40	=40	=40	=40	=40	=40	=40
1C	-lis.	.	1c	-lis.	1e	-lis	1g	-lis.
!LO:TX:a:t=P:problem:w źródle ta adnotacja zapisana za taktem 40, na pięciolinii	!	!	!	!	!LO:TX:a:t=P:problem:w źródle ta adnotacja zapisana za taktem 40, na pięciolinii	!	!LO:TX:a:t=P:problem:w źródle ta adnotacja zapisana za taktem 40, na pięciolinii	!
!LO:TX:a:i:t=Et incarnatus.	!	!	!	!	!LO:TX:a:i:t=Et incarnatus.	!	!LO:TX:a:i:t=Et incarnatus in Aminor.	!
!LO:LB:g=original	!	!	!LO:LB:g=original	!	!	!	!LO:LB:g=original	!
==41	==41	==41	==41	==41	==41	==41	==41	==41
*k[]	*	*	*k[]	*	*k[]	*	*k[]	*
*M3/4	*	*	*M3/4	*	*M3/4	*	*M3/4	*
!LO:TX:a:t=P:problem:w źródle brak kasownika przykluczowego	!	!	!LO:TX:a:t=P:problem:w źródle brak kasownika przykluczowego	!	!	!	!	!
!	!	!	!LO:TX:a:t=P:problem:w źródle ta adnotacja zapisana przed taktem 41, na pięciolinii	!	!	!	!	!
!	!	!	!LO:TX:a:i:t=Et incarnatus	!	!	!	!	!
4A\	Et	.	4A\	Et	2.r	.	4a\	Et
4cn\	in-	.	4c\	in-	.	.	4cc\	in-
!	!	!	!	!	!LO:TX:a:t=1.	!	!	!
(>8Bn\L	-car	.	(>8B\L	-car	.	.	(>8bn\L	-car-
8A\J)	.	.	8A\J)	.	.	.	8a\J)	.
=42	=42	=42	=42	=42	=42	=42	=42	=42
4E\	et	.	4G#X/	et	4B/	Et	[>2.ee\	-na-
4G#X\	in-	.	4B\	in-	4d/	in-	.	.
(>8F#X\L	-car-	.	(>8A\L	-car-	(<8c/L	-car-	.	.
8E\J)	.	.	8G#\J)	.	8B/J)	.	.	.
=43	=43	=43	=43	=43	=43	=43	=43	=43
4.A\	-na-	.	4.A/	-na-	4.c\	-na-	4.ee\]	.
8E\	-tus	.	8G#X/	-tus	8B/	-tus	8dd\	-tus
8AA/	est	.	8A/	est	8A/	est	8cc\	est
8A\	de	.	8A/	de	8e\	de	8cc\	de
!	!	!	!LO:LB:g=original	!	!	!	!	!
=44	=44	=44	=44	=44	=44	=44	=44	=44
4E\	spi-	.	(<8A/L	spi-	(>8e\L	spi-	(>8cc\L	spi-
.	.	.	8G#X/J)	.	8d\J)	.	8bn\J)	.
(>8D\L	-ri-	.	(<8G#/L	-ri-	(>8f\L	-ri-	(>8dd\L	-ri-
8E\J)	.	.	8A/J)	.	8e\J)	.	8cc\J)	.
(>8Fn\L	-tu	.	(<8G#/L	-tu	(>8d\L	-tu	(>8b\L	-tu
8E\J)	.	.	8A/J)	.	8c\J)	.	8a\J)	.
!LO:LB:g=original	!	!	!	!	!	!	!	!
=45	=45	=45	=45	=45	=45	=45	=45	=45
4E\	san-	.	4e\	san-	4c/	san-	4a\	san-
4E\	-cto	.	4e\	-cto	4B/	-cto,	4g#X\	-cto
4r	.	.	4r	.	4r	.	4r	.
!	!	!	!	!	!LO:LB:g=original	!	!LO:LB:g=original	!
=46	=46	=46	=46	=46	=46	=46	=46	=46
8Cn/	ex	.	8Gn/	ex	8e\	ex	8cc\	ex
8C/	Ma-	.	8G/	ma-	8e\	Ma-	8cc\	ma-
4E\	-ri-	.	4G/	-ri-	4.e\	-ri-	4.cc\	-ri-
4C\	-a	.	(>8A\L	-a	.	.	.	.
.	.	.	8B-X\J)	.	8g\	-a	8b-X\	-a
=47	=47	=47	=47	=47	=47	=47	=47	=47
4.Fn\	vir-	.	4.c\	vir-	4.f\	vir-	4.a\	vir-
8F\	-gi-	.	8c\	-gi-	8f\	-gi-	8a\	-gi-
4F\	-ne	.	4c\	-ne	4f\	-ne	4a\	-ne
=48	=48	=48	=48	=48	=48	=48	=48	=48
8D\	ex	.	8A\	ex	8f#X\	ex	8dd\	ex
8D\	Ma-	.	8A\	ma-	8f#\	Ma-	8dd\	ma-
!	!	!	!LO:LB:g=original	!	!	!	!	!
4F#X\	-ri-	.	4A\	-ri-	4.f#\	-ri-	4.dd\	-ri-
4D\	-a	.	(>8Bn\L	-a	.	.	.	.
.	.	.	8c\J)	.	8a\	-a	8cc\	-a
=49	=49	=49	=49	=49	=49	=49	=49	=49
4.G\	vir-	.	4.d\	vir-	4.g\	vir-	4.bn\	vir-
8G\	-gi-	.	8d\	-gi-	8g\	-gi-	8b\	-gi-
!LO:TX:a:t=P:problem:w źródle ta adnotacja zapisana za taktem 49, na pięciolinii	!	!	!	!	!	!	!	!
!LO:TX:b:i:t=V&colon; S&colon;	!	!	!	!	!	!	!	!
!	!	!	!	!	!	!	!LO:TX:a:t=P:problem:w źródle ta adnotacja zapisana za taktem 49, na pięciolinii	!
!LO:SIC:v:t=custos G#	!	!	!	!	!	!	!LO:TX:b:i:t=V&colon; S&colon;	!
4G\	-ne	.	4d\	-ne	4g\	-ne	4b\	-ne,
!LO:PB:g=original	!	!	!	!	!LO:LB:g=original	!	!LO:PB:g=original	!
=50	=50	=50	=50	=50	=50	=50	=50	=50
4G#X\	et	.	4Bn\	et	4fn\	et	4dd\	et
4G#\	ho-	.	4B\	ho-	4f\	ho-	4dd\	ho-
4G#\	-mo	.	4B\	-mo	4f\	-mo	4dd\	-mo
=51	=51	=51	=51	=51	=51	=51	=51	=51
(>4A\	ho-	.	(>4A\	ho-	(>4e\	ho-	(>4cc\	ho-
4G#X\)	.	.	4B\)	.	4d\)	.	4bn\)	.
4A\	-mo	.	4c\	-mo	4c\	-mo	4a\	-mo
=52	=52	=52	=52	=52	=52	=52	=52	=52
(>4D\	fa-	.	2e\	fa-	(>4d\	fa-	(>4bn\	fa-
4E\)	.	.	.	.	4c\)	.	4a\)	.
4E\	-ctus	.	4e\	-ctus	4B/	-ctus	4g#X\	-ctus
=53	=53	=53	=53	=53	=53	=53	=53	=53
2F;>\	est	.	2d\	est.	2B/	est,	2.g#X\	est
4r	.	.	4r	.	4r	.	.	.
!	!	!	!LO:LB:g=original	!	!	!	!	!
=54	=54	=54	=54	=54	=54	=54	=54	=54
4G#X\	et	.	4Bn\	et	4fn\	et	4dd\	et
4G#\	ho-	.	4B\	ho-	4f\	ho-	4dd\	ho-
4G#\	-mo	.	4B\	-mo	4f\	-mo	4dd\	-mo
=55	=55	=55	=55	=55	=55	=55	=55	=55
(>4A\	ho-	.	(>4A\	ho-	(>4e\	ho-	(>4cc\	ho-
4E\)	.	.	4B\)	.	4g#X\)	.	4bn\)	.
4C/	-mo	.	4A\	-mo	4a\	-mo	4cc\	-mo
!	!	!	!	!	!LO:LB:g=original	!	!LO:LB:g=original	!
=56	=56	=56	=56	=56	=56	=56	=56	=56
(>4D\	fa-	.	(>4G#X/	fa-	(>4b\	fa-	(>4dd\	fa-
4E\)	.	.	4e\)	.	4a\)	.	4cc\)	.
4E\	-ctus	.	4e\	-ctus	4g#X\	-ctus	4bn\	-ctus
!LO:LB:g=original	!	!	!	!	!	!	!	!
=57	=57	=57	=57	=57	=57	=57	=57	=57
2AA/	est	.	2.e\	est.	2a\	est.	2.cc\	est
4r	.	.	.	.	4r	.	.	.
==58	==58	==58	==58	==58	==58	==58	==58	==58
(<4C/	Cru-	.	2G/	Cru-	2e\	Cru-	2cc\	Cru-
8C/L	.	.	.	.	.	.	.	.
8D/J)	.	.	.	.	.	.	.	.
(>8E\L	-ci-	.	4G/	-ci-	4e\	-ci-	4cc\	-ci-
8F\J)	.	.	.	.	.	.	.	.
=59	=59	=59	=59	=59	=59	=59	=59	=59
4G\	-fi-	.	4G/	-fi-	4e\	-fi-	4cc\	-fi-
2GG/	-xus	.	2G/	-xus	2d\	-xus	2bn\	-xus
!	!	!	!LO:LB:g=original	!	!	!	!	!
=60	=60	=60	=60	=60	=60	=60	=60	=60
4.G\	e-	.	4.B\	e-	4.f\	e-	4.dd\	e-
8A\	-ti-	.	8B\	-ti-	8f\	-ti-	8dd\	-ti-
8B\	-am	.	8B\	-am	8f\	-am	8dd\	-am
8G\	pro	.	8B\	pro	8f\	pro	8dd\	pro
=61	=61	=61	=61	=61	=61	=61	=61	=61
4c\	no-	.	4G/	no-	4f\	no-	4dd\	no-
4C/	-bis	.	4G/	-bis	4e\	-bis	4cc\	-bis
!	!	!	!	!	!LO:TX:b:i:t=V&colon; S&colon;	!	!	!
4C/	sub	.	4c\	sub	4g\	sub	4ee\	sub
!	!	!	!	!	!LO:TX:a:t=P:problem:w źródle ta adnotacja zapisana za taktem 61, na pięciolinii	!	!	!
!	!	!	!	!	!LO:PB:g=original	!	!LO:LB:g=original	!
=62	=62	=62	=62	=62	=62	=62	=62	=62
4.C/	Pon-	.	4.c\	pon-	4.g\	pon-	4.ee\	pon-
8D\	-ti-	.	8B\	-ti-	8f\	-ti-	8dd\	-ti-
4E\	-o	.	4G/	-o	4e\	-o	4cc\	-o
!LO:LB:g=original	!	!	!	!	!	!	!	!
=63	=63	=63	=63	=63	=63	=63	=63	=63
4F\	pi-	.	4B\	pi-	4f\	pi-	4dd\	pi-
(>4F\	-la-	.	(>4B\	-la-	(>4f\	-la-	(>4dd\	-la-
4F#X\)	.	.	4c\)	.	4e\)	.	4cc\)	.
=64	=64	=64	=64	=64	=64	=64	=64	=64
2G\	-to.	.	2G/	-to	2d\	-to	2bn\	-to
4r	.	.	4r	.	4r	.	4r	.
!	!	!	!LO:LB:g=original	!	!	!	!	!
=65	=65	=65	=65	=65	=65	=65	=65	=65
2G\	pas-	.	2G/	pas-	(>8d\L	pas-	8b\L	pas-
.	.	.	.	.	8e\	.	8cc\	.
.	.	.	.	.	8f\	.	8dd\	.
.	.	.	.	.	8e\	.	8cc\	.
4G\	-sus	.	4G/	-sus	8d\	.	8b\	.
.	.	.	.	.	8f\J)	.	8dd\J	.
=66	=66	=66	=66	=66	=66	=66	=66	=66
(>8c\L	pas-	.	(>8e\L	paſ-	2e\	-sus	4cc\	-sus
8G\	.	.	8d\	.	.	.	.	.
8E\	.	.	8c\	.	.	.	4r	.
8G\J)	.	.	8d\J)	.	.	.	.	.
4C/	-sus	.	4e\	-sus	4r	.	4r	.
=67	=67	=67	=67	=67	=67	=67	=67	=67
(>4G\	et	.	(>4d\	et	2g\	et	(>4ff\	et
4F\)	.	.	4B\)	.	.	.	4dd\)	.
4E\	se-	.	4c\	se-	4g\	se-	4ee\	se-
=68	=68	=68	=68	=68	=68	=68	=68	=68
(>4F\	-pul-	.	(<4A/	-pul-	(>4f\	-pul-	(>4dd\	-pul-
4G\)	.	.	4G/)	.	4e\)	.	4cc\)	.
4GG/	-tus	.	4G/	-tus	4d\	-tus	4bn\	-tus
!	!	!	!	!	!	!	!LO:LB:g=original	!
=69	=69	=69	=69	=69	=69	=69	=69	=69
2.C/	est.	.	2.G/	est.	2e\	est.	2cc\	est,
.	.	.	.	.	4r	.	4r	.
!LO:LB:g=original	!	!	!LO:LB:g=original	!	!LO:LB:g=original	!	!	!
==70	==70	==70	==70	==70	==70	==70	==70	==70
*k[b-]	*	*	*k[b-]	*	*k[b-]	*	*k[b-]	*
*M4/4	*	*	*M4/4	*	*M4/4	*	*M4/4	*
*met(C.)	*	*	*met(C.)	*	*met(C.)	*	*met(C.)	*
!O:TX:a:t=P:problem:w źródle ta adnotacja zapisana przed taktem 70, na pięciolinii	!	!	!LO:TX:a:t=P:problem:w źródle ta adnotacja zapisana przed taktem 70, na pięciolinii	!	!LO:TX:a:t=P:problem:w źródle ta adnotacja zapisana przed taktem 70, na pięciolinii i częściowo przed pięciolinią	!	!	!
!LO:TX:a:i:t=Et resurrexit.	!	!	!LO:TX:a:i:t=Et resurrexit	!	!LO:TX:a:i:t=Et resurrexit	!	!	!
2FF/	Et	.	2f\	Et	2a\	Et	2cc\	Et
4AA/	re-	.	4f\	re-	4a\	re-	4cc\	re-
4C/	-sur-	.	4c\	-sur-	4g\	-sur-	4b-X\	-sur-
=71	=71	=71	=71	=71	=71	=71	=71	=71
(>4.F\	-re-	.	(>4.c\	-re-	(>4.f\	-re-	(>4.a\	-re-
8E\)	.	.	8B-X\)	.	8g\)	.	8b-X\)	.
2F\	-xit	.	2A\	-xit	2a\	-xit	2cc\	-xit
=72	=72	=72	=72	=72	=72	=72	=72	=72
2F\	ter-	.	2f\	ter-	(>4a\	ter-	(>4cc\	ter-
.	.	.	.	.	8b-\L	.	8dd\L	.
.	.	.	.	.	8a\J)	.	8cc\J)	.
4E\	-ti-	.	4c\	-ti-	4g\	-ti-	4b-X\	-ti-
4F\	-a	.	4c\	-a	4f\	-a	4a\	-a
=73	=73	=73	=73	=73	=73	=73	=73	=73
4C/	di-	.	4c\	di-	4f\	di-	4a\	di-
4C/	-e	.	4c\	-e	4e\	-e	4g\	-e
4r	.	.	4r	.	4r	.	4r	.
4C/	se-	.	4c\	se-	(>8e\L	se-	(>8g\L	se-
.	.	.	.	.	8f\J)	.	8a\J)	.
!	!	!	!LO:LB:g=original	!	!LO:LB:g=original	!	!LO:LB:g=original	!
=74	=74	=74	=74	=74	=74	=74	=74	=74
2C/	-cun-	.	2e\	-cun-	2g\	-cun-	2b-\	-cun-
4C/	-dum	.	4c\	-dum	4f\	-dum	4a\	-dum
!LO:LB:g=original	!	!	!	!	!	!	!	!
!LO:SIC:v:l:s=scrip-	!	!	!	!	!	!	!	!
4C/	scrib-	.	4c\	scrip-	4e\	scrip-	4g\	scrip-
=75	=75	=75	=75	=75	=75	=75	=75	=75
(>4F\	-tu-	.	(>4.A\	-tu-	(>4.a\	-tu-	(>4.cc\	-tu-
4C\)	.	.	.	.	.	.	.	.
.	.	.	8B-X\)	.	8g\)	.	8b-X\)	.
2FF/	-ras	.	2c\	-ras	2f\	-ras	2a\	-ras
=76	=76	=76	=76	=76	=76	=76	=76	=76
2r	.	.	2r	.	2r	.	2r	.
4F\	et	.	4c\	et	4A/	et	4f/	et
4F\	as-	.	4c\	a-	4A/	as-	4f/	as-
=77	=77	=77	=77	=77	=77	=77	=77	=77
(>4F\	-cen-	.	1c	-scen-	(>4A/	-cen-	4f/	-cen-
4A\	.	.	.	.	8B-/L	.	8g/L	.
.	.	.	.	.	8c/J	.	8a/J	.
4c\	.	.	.	.	8d\L	.	8b-X\L	.
.	.	.	.	.	8e\	.	8cc\	.
4A\)	.	.	.	.	8f\	.	8dd\	.
.	.	.	.	.	8g\J)	.	8ee\J	.
=78	=78	=78	=78	=78	=78	=78	=78	=78
2F\	-dit	.	2c\	-dit	2a\	-dit	2ff\	-dit
(>8F\L	in	.	2c\	in	2a\	in	2ff\	in
8G\	.	.	.	.	.	.	.	.
8A\	.	.	.	.	.	.	.	.
8B-\J)	.	.	.	.	.	.	.	.
=79	=79	=79	=79	=79	=79	=79	=79	=79
!LO:SIC:v:l:s=cae-	!	!	!LO:SIC:v:l:s=cae-	!	!LO:SIC:v:l:s=Cae-	!	!LO:SIC:v:l:s=cae-	!
4c\	ce-	.	4c\	ce-	4a\	Ce-	(>4ff\	ce-
4C/	-lum	.	4c\	-lum,	4g\	-lum	4ee\)	.
!	!	!	!	!	!LO:LB:g=original	!	!LO:LB:g=original	!
!	!	!	!LO:TX:a:t=P:problem:w źródle ta adnotacja zapisana za taktem 79, na pięciolinii	!	!	!	!	!
!	!	!	!LO:TX:b:i:t=V&colon; S&colon;	!	!	!	!	!
[>2C/	se-	.	2r	.	4g\	se-	(>4ee\	-lum
.	.	.	.	.	4a\	-det	4ff\)	.
!	!	!	!LO:PB:g=original	!	!	!	!	!
=80	=80	=80	=80	=80	=80	=80	=80	=80
2C/]	.	.	2e\	se-	2b-\	se-	2gg\	se-
4F\	-det	.	4c\	-det	4a\	-det	4ff\	-det
4C/	ad	.	4c\	ad	4g\	ad	4ee\	ad
!LO:LB:g=original	!	!	!	!	!	!	!	!
=81	=81	=81	=81	=81	=81	=81	=81	=81
4F\	dex-	.	4c\	dex-	4a\	dex-	4ff\	de-
8BB-/	-te-	.	8B-\	-te-	8b-\	-te-	8dd\	-xte-
8D/	-ram	.	8d\	-ram	8g\	-ram	8b-X\	-ram
2C/	Pa-	.	2c\	pa-	(>4f\	pa-	(>4a\	pa-
.	.	.	.	.	4e\)	.	4g\)	.
=82	=82	=82	=82	=82	=82	=82	=82	=82
2F\	-tris	.	2c\	-tris	2f\	-tris	2a\	-tris
(>8D\L	et	.	2A\	et	2f\	et	2dd\	et
8E\	.	.	.	.	.	.	.	.
8F\	.	.	.	.	.	.	.	.
8G\J)	.	.	.	.	.	.	.	.
=83	=83	=83	=83	=83	=83	=83	=83	=83
4A\	i-	.	4A\	i-	4e\	i-	4cc#X\	i-
4A\	-te-	.	4A\	-te-	4f\	-te-	4dd\	-te-
4A\	-rum	.	4c#X\	-rum	4g\	-rum	4ee\	-rum
4AA/	ven-	.	4A\	ven-	4e\	ven-	4cc#\	ven-
!	!	!	!	!	!LO:LB:g=original	!	!LO:LB:g=original	!
=84	=84	=84	=84	=84	=84	=84	=84	=84
4D\	-tu-	.	4A\	-tu-	4f\	-tu-	4dd\	-tu-
4E\	-rus	.	4A\	-rus	4e\	-rus	4cc#X\	-rus
4F\	est	.	4A\	est	4f\	est	4dd\	est
4D\	cum	.	4A\	cum	(>8g\L	cum	(>8ee\L	cum
.	.	.	.	.	8f\J)	.	8dd\J)	.
!	!	!	!LO:LB:g=original	!	!	!	!	!
=85	=85	=85	=85	=85	=85	=85	=85	=85
(>8A\L	glo-	.	4.A\	glo-	4.e\	glo-	4.cc#X\	glo-
8E\J)	.	.	.	.	.	.	.	.
!LO:LB:g=original	!	!	!	!	!	!	!	!
(<8C#X/L	-ri-	.	.	.	.	.	.	.
8E/J)	.	.	8A\	-ri-	8e\	-ri-	8cc#\	-ri-
4AA/	-a	.	4A\	-a	4e\	-a	4cc#\	-am
4r	.	.	4r	.	4r	.	4r	.
=86	=86	=86	=86	=86	=86	=86	=86	=86
4AA/	ju-	.	4A\	ju-	4e\	ju-	4cc#X\	Ju-
4AA/	-di-	.	4A\	-di-	4f\	-di-	4dd\	-di-
4AA/	-ca-	.	4c#X\	-ca-	4g\	-ca-	4ee\	-ca-
4AA/	-re	.	4A\	-re	4e\	-re	4cc#\	-re
=87	=87	=87	=87	=87	=87	=87	=87	=87
4D\	vi-	.	4A\	vi-	4f\	vi-	4dd\	vi-
4D\	-vos	.	4A\	-vos	4e\	-vos	4cc#X\	-vos
4r	.	.	4r	.	4r	.	4r	.
4AA/	et	.	4A\	et	4e\	et	4cc#\	et
!	!	!	!	!	!LO:LB:g=original	!	!	!
=88	=88	=88	=88	=88	=88	=88	=88	=88
(>4D\	mor-	.	2.A\	mor-	2.f\	mor-	2.dd\	mor-
4E\)	.	.	.	.	.	.	.	.
(>4F\	-tu-	.	.	.	.	.	.	.
4G\)	.	.	4Bn\	-tu-	4f\	-tu-	4dd\	-tu-
!	!	!	!	!	!	!	!LO:LB:g=original	!
=89	=89	=89	=89	=89	=89	=89	=89	=89
2A\	-os	.	2A\	-os	2e\	-os	2cc#X\	-os
4C#X/	cu-	.	4A\	cu-	4e\	cu-	4cc#\	Cu-
4AA/	-jus	.	4c#X\	-jus	4g\	-jus	4ee\	-jus
!LO:LB:g=original	!	!	!LO:LB:g=original	!	!	!	!	!
=90	=90	=90	=90	=90	=90	=90	=90	=90
2D\	re-	.	2d\	re-	2a\	re-	2ff\	re-
4AA/	-gni	.	4c#X\	-gni	4g\	-gni	4ee\	-gni
4AA/	non	.	4c#\	non	4g\	non	4ee\	non
=91	=91	=91	=91	=91	=91	=91	=91	=91
4D\	e-	.	4d\	e-	4a\	e-	4ff\	e-
4G\	-rit	.	4B-\	-rit	(>8b-\L	-rit	(>8gg\L	-rit
.	.	.	.	.	8g\J)	.	8ee\J)	.
(>4A\	fi-	.	2A\	fi-	(>4f\	fi-	(>4dd\	fi-
4AA/)	.	.	.	.	4e\)	.	4cc#X\)	.
=92	=92	=92	=92	=92	=92	=92	=92	=92
2D\	-nis	.	2A\	-nis	2f\	-nis	2dd\	-nis
2r	.	.	2r	.	2r	.	2r	.
!	!	!	!	!	!LO:LB:g=original	!	!	!
=93	=93	=93	=93	=93	=93	=93	=93	=93
(>4F\	et	.	2f\	et	2.a\	et	(>2ccn\	et
4G\)	.	.	.	.	.	.	.	.
(>4A\	in	.	2c\	in	.	.	4ff\)	.
4F\)	.	.	.	.	(>8b-\L	in	(>8gg\L	in
.	.	.	.	.	8a\J)	.	8ff\J)	.
!	!	!	!	!	!	!	!LO:LB:g=original	!
=94	=94	=94	=94	=94	=94	=94	=94	=94
4.C/	Spi-	.	4.c\	spi-	4.g\	Spi-	4.ee\	spi-
8C/	-ri-	.	8c\	-ri-	8g\	-ri-	8ee\	-ri-
2C/	-tum	.	2c\	-tum	2g\	-tum	2ee\	-tum
=95	=95	=95	=95	=95	=95	=95	=95	=95
(>4C/	San-	.	(>4e\	san-	(>4b-\	san-	(>4gg\	san-
4D/)	.	.	4d\)	.	4a\)	.	4ff\)	.
(>4E\	-ctum	.	(>4c\	-ctum	(>4g\	-ctum	(>4ee\	-ctum
4C\)	.	.	4e\)	.	4b-\)	.	4gg\)	.
!LO:LB:g=original	!	!	!LO:LB:g=original	!	!	!	!	!
=96	=96	=96	=96	=96	=96	=96	=96	=96
(>8F\L	Do-	.	4.c\	Do-	4.a\	Do-	4.ff\	Do-
8C\J)	.	.	.	.	.	.	.	.
(<8AA/L	-mi-	.	.	.	.	.	.	.
8C/J)	.	.	8c\	-mi-	8a\	-mi-	8ff\	-mi-
2FF/	-num	.	2c\	-num	2a\	-num	2ff\	-num
=97	=97	=97	=97	=97	=97	=97	=97	=97
4F\	et	.	4F/	et	4b-\	et	4dd\	et
4F\	vi-	.	4A\	vi-	4a\	vi-	4cc\	vi-
4F\	-vi-	.	4A\	-vi-	4a\	-vi-	4ff\	-vi-
4E\	-fi-	.	4c\	-fi-	4b-\	-fi-	4dd\	-fi-
!	!	!	!	!	!LO:LB:g=original	!	!	!
=98	=98	=98	=98	=98	=98	=98	=98	=98
(>4F\	-can-	.	1c	-can-	(>2a\	-can-	(>2cc\	-can-
4A\	.	.	.	.	.	.	.	.
4c\	.	.	.	.	2g\)	.	2b-X\)	.
4C/)	.	.	.	.	.	.	.	.
!	!	!	!	!	!	!	!LO:LB:g=original	!
=99	=99	=99	=99	=99	=99	=99	=99	=99
4F\	-tem	.	4c\	-tem	4f\	-tem	4a\	-tem
(>4F\	qui	.	(>4A\	qui	2f\	qui	(>4cc\	qui
4G\)	.	.	4B-X\)	.	.	.	4dd\)	.
4A\	ex	.	4c\	ex	4f\	ex	4ee-X\	ex
=100	=100	=100	=100	=100	=100	=100	=100	=100
(>4B-\	pa-	.	2B-\	pa-	2f\	pa-	2dd\	pa-
8F\L	.	.	.	.	.	.	.	.
8D\J)	.	.	.	.	.	.	.	.
2BB-/	-tre	.	2B-\	-tre	2f\	-tre	2dd\	-tre
!LO:LB:g=original	!	!	!	!	!	!	!	!
=101	=101	=101	=101	=101	=101	=101	=101	=101
4r	.	.	4r	.	4r	.	4r	.
(>4G\	fi-	.	(>4Bn\	fi-	2g\	fi-	(>4dd\	fi-
4A\)	.	.	4c\)	.	.	.	4een\)	.
4Bn\	-li-	.	4d\	-li-	4g\	-li-	4ff\	-li-
!	!	!	!LO:LB:g=original	!	!	!	!	!
=102	=102	=102	=102	=102	=102	=102	=102	=102
(>4c\	-o-	.	(>4c\	-o-	(>4g\	-o-	(>4ee\	-o-
4B-X\)	.	.	4B-X\)	.	4e\)	.	4cc\)	.
4A\	-que	.	4c\	-que	4a\	-que	4ff\	-que
4G\	pro-	.	4c\	pro-	4b-\	pro-	4gg\	pro-
=103	=103	=103	=103	=103	=103	=103	=103	=103
(>4F\	-ce-	.	1c	-ce-	(>2a\	-ce-	(>2ff\	-ce-
8A\L	.	.	.	.	.	.	.	.
8F\J	.	.	.	.	.	.	.	.
4c\	.	.	.	.	2g\)	.	2ee\)	.
4C/)	.	.	.	.	.	.	.	.
=104	=104	=104	=104	=104	=104	=104	=104	=104
2F\	-dit	.	2c\	-dit	2a\	-dit	2ff\	-dit
2r	.	.	2r	.	2r	.	2r	.
!	!	!	!	!	!LO:LB:g=original	!	!LO:LB:g=original	!
=105	=105	=105	=105	=105	=105	=105	=105	=105
2.F\	qui	.	2A\	qui	2a\	qui	2cc\	qui
.	.	.	(>4c\	cum	(>4f\	cum	(>4a\	cum
!LO:TX:a:t=P:problem:w źródle ta adnotacja zapisana za taktem 105, na pięciolinii	!	!	!	!	!	!	!	!
!LO:TX:b:i:t=V&colon; S&colon;	!	!	!	!	!	!	!	!
4E\	cum,	.	4B-\)	.	4g\)	.	4b-X\)	.
!LO:PB:g=original	!	!	!	!	!	!	!	!
=106	=106	=106	=106	=106	=106	=106	=106	=106
(>4F\	pa-	.	(>4A\	pa-	(>4a\	pa-	(>4cc\	pa-
4E\)	.	.	4G\)	.	4b-\)	.	4dd\)	.
4F\	-tre	.	4F/	-tre	4a\	-tre	4cc\	-tre
4F\	et	.	4F/	et	4a\	et	4cc\	et
=107	=107	=107	=107	=107	=107	=107	=107	=107
2BB-/	fi-	.	2F/	fi-	2b-\	fi-	2dd\	fi-
!	!	!	!LO:N:vis=2.	!	!	!	!	!
2C/	-li-	.	2B-X\	-li-	2g\	-li-	2ee\	-li-
!	!	!	!LO:LB:g=original	!	!	!	!	!
=108	=108	=108	=108	=108	=108	=108	=108	=108
2F\	-o	.	2c\	-o	2a\	-o	2ff\	-o
4F\	si-	.	4c\	si-	4a\	si-	4ff\	si-
4F\	-mul	.	4c\	-mul	4a\	-mul	4ff\	-mul
=109	=109	=109	=109	=109	=109	=109	=109	=109
4C/	a-	.	4c\	a-	4g\	a-	4ee\	a-
4F\	-do-	.	4A\	-do-	4a\	-do-	4ff\	-do-
(>4G\	-ra-	.	(>4G\	-ra-	(>4g\	-ra-	(>4ee\	-ra-
4GG/)	.	.	4Bn\)	.	4f\)	.	4dd\)	.
=110	=110	=110	=110	=110	=110	=110	=110	=110
2C/	-tur	.	2G/	-tur	2e\	-tur	2cc\	-tur
2B-X\	et	.	2c\	et	2g\	et	2ee\	et
!	!	!	!	!	!LO:LB:g=original	!	!LO:LB:g=original	!
=111	=111	=111	=111	=111	=111	=111	=111	=111
4A\	con-	.	4F/	con-	4a\	con-	4cc\	con-
4G\	-glo-	.	4G/	-glo-	4b-\	-glo-	4dd\	-glo-
4F\	-ri-	.	4A\	-ri-	4a\	-ri-	4cc\	-ri-
!LO:LB:g=original	!	!	!	!	!	!	!	!
4E\	-fi-	.	4B-X\	-fi-	4g\	-fi-	4b-X\	-fi-
=112	=112	=112	=112	=112	=112	=112	=112	=112
4F\	-ca-	.	4c\	-ca-	4f\	-ca-	4a\	-ca-
4C/	-tur	.	4c\	-tur	4e\	-tur	4g\	-tur
4C/	qui	.	4c\	qui	4e\	qui	4g\	qui
4C/	lo-	.	4c\	lo-	4f\	lo-	4a\	lo-
!	!	!	!LO:LB:g=original	!	!	!	!	!
=113	=113	=113	=113	=113	=113	=113	=113	=113
(>4E\	-cu-	.	2c\	-cu-	2g\	-cu-	2b-X\	-cu-
4C\)	.	.	.	.	.	.	.	.
!	!	!	!	!	!	!	!LO:N:vis=2.	!
2F\	-tus	.	2c\	-tus	2f\	-tus	2a\	-tus
=114	=114	=114	=114	=114	=114	=114	=114	=114
2C/	est	.	2c\	est	2e\	est	2g\	est
4F\	per	.	4A\	per	4f\	per	4cc\	per
4E\	pro-	.	4B-\	pro-	4g\	pro-	4cc\	pro-
=115	=115	=115	=115	=115	=115	=115	=115	=115
(>4F\	-phe-	.	(>2A\	-phe-	(>2f\	-phe-	1cc	-fe-
4A\	.	.	.	.	.	.	.	.
4c\	.	.	2G\)	.	2e\)	.	.	.
4C/)	.	.	.	.	.	.	.	.
=116	=116	=116	=116	=116	=116	=116	=116	=116
2F\	-tas	.	2A\	-tas	2f\	-tas.	2cc\	-tas.
!	!	!	!	!	!LO:TX:a:t=P:problem:w źródle ta adnotacja zapisana za taktem 116, na pieciolinii	!	!LO:TX:a:t=P:problem:w źródle ta adnotacja zapisana za taktem 116, na pieciolinii	!
!	!	!	!	!	!LO:TX:b:i:t=V&colon; S&colon;	!	!LO:TX:b:i:t=V&colon; S&colon;	!
2r	.	.	2r	.	2r	.	2r	.
!	!	!	!	!	!LO:PB:g=original	!	!LO:PB:g=original	!
=117	=117	=117	=117	=117	=117	=117	=117	=117
(>4D\	et	.	2A\	et	(>4f\	et	(>4dd\	et
4E\)	.	.	.	.	4e\)	.	4cc#X\)	.
4F\	u-	.	4A\	u-	4f\	u-	4dd\	u-
4E\	-nam	.	4A\	-nam	4g\	-nam	4ee\	-nam
!LO:LB:g=original	!	!	!	!	!	!	!	!
=118	=118	=118	=118	=118	=118	=118	=118	=118
4D/	San-	.	4A\	san-	4f\	san-	4dd\	san-
4AA/	-ctam	.	4A\	-ctam	4e\	-ctam	4cc#X\	-ctam
4r	.	.	4r	.	4r	.	4r	.
4A\	ca-	.	4A\	ca-	(>8e\L	ca-	(>8cc#\L	ca-
.	.	.	.	.	8f\J)	.	8dd\J)	.
!	!	!	!LO:LB:g=original	!	!	!	!	!
=119	=119	=119	=119	=119	=119	=119	=119	=119
!	!	!	!LO:SIC:v:l:s=-tho-	!	!	!	!LO:SIC:v:l:s=-tho-	!
2.A\	-tho-	.	2c#X\	-to-	2g\	-tho-	(>2ee\	-to-
.	.	.	2A\	-li-	(>4f\	-li-	4dd\)	.
4AA/	-li-	.	.	.	4e\)	.	4cc#X\	-li-
=120	=120	=120	=120	=120	=120	=120	=120	=120
4D\	-cam	.	4A\	-cam	4f\	-cam	4dd\	-cam
4G\	et	.	4B-X\	et	4e\	et	4cc#X\	et
4G\	A-	.	4B-\	a-	4e\	A-	4cc#\	a-
4G\	-po-	.	4B-\	-po-	4e\	-pos-	4cc#\	-po-
=121	=121	=121	=121	=121	=121	=121	=121	=121
4.F\	-sto-	.	4.A\	-sto-	4.f\	-to-	4.dd\	-sto-
8E\	-li-	.	8c#X\	-li-	8g\	-li-	8ee\	-li-
2D\	-cam	.	2d\	-cam	2a\	-cam	2ff\	-cam
!	!	!	!	!	!LO:LB:g=original	!	!LO:LB:g=original	!
=122	=122	=122	=122	=122	=122	=122	=122	=122
4G\	Ec-	.	4B-X\	ec-	4g\	ec-	4ee\	ec-
2A\	-cle-	.	2A\	-cle-	2f\	-cle-	2dd\	-cle-
4AA/	-si-	.	4A\	-si-	4e\	-si-	4cc#X\	-si-
=123	=123	=123	=123	=123	=123	=123	=123	=123
2D\	-am	.	2A\	-am	2f\	-am	2dd\	-am
4r	.	.	4r	.	4r	.	4r	.
4Cn/	con-	.	4G/	con-	4e\	con-	4ccn\	con-
!LO:LB:g=original	!	!	!LO:LB:g=original	!	!	!	!	!
=124	=124	=124	=124	=124	=124	=124	=124	=124
(>8F\L	-fi-	.	4.A\	-fi-	4.f\	-fi-	4.cc\	-fi-
8A\J)	.	.	.	.	.	.	.	.
(>8c\L	-te-	.	.	.	.	.	.	.
8A\J)	.	.	8A\	-te-	8f\	-te-	8cc\	-te-
2F\	-or	.	2A\	-or	2f\	-or	2cc\	-or
=125	=125	=125	=125	=125	=125	=125	=125	=125
2F\	u-	.	(>4A\	u-	(>4f\	u-	2cc\	u-
.	.	.	4c\)	.	4a\)	.	.	.
4E\	-num	.	4B-\	-num	4g\	-num	4cc\	-num
4F\	bap-	.	4A\	bap-	4f\	bap-	4cc\	bap-
=126	=126	=126	=126	=126	=126	=126	=126	=126
4C/	-tis-	.	4A\	-tis-	4f\	-tis-	4cc\	-tis-
2C/	-ma	.	4G/	-ma	4e\	-ma	4cc\	-ma
.	.	.	2r	.	2r	.	2r	.
4r	.	.	.	.	.	.	.	.
!	!	!	!	!	!	!	!LO:LB:g=original	!
=127	=127	=127	=127	=127	=127	=127	=127	=127
4B-\	in	.	4B-\	in	4f\	in	4dd\	in
4A\	re-	.	4c\	re-	4f\	re-	4cc\	re-
!	!	!	!	!	!LO:LB:g=original	!	!	!
!	!	!	!LO:SIC:v:l:s=-mis-	!	!	!	!LO:SIC:v:l:s=-mis-	!
4G\	-miſ-	.	4c\	-mi-	4e\	-miſ-	4b-X\	-mi-
4F\	-si-	.	4c\	-si-	4f\	-si-	4a\	-si-
=128	=128	=128	=128	=128	=128	=128	=128	=128
4E\	-o-	.	4c\	-o-	4e\	-o-	4g\	-o-
2C/	-nem	.	4c\	-nem	4e\	-nem	4g\	-nem
.	.	.	2r	.	2r	.	2r	.
4r	.	.	.	.	.	.	.	.
!	!	!	!LO:LB:g=original	!	!	!	!	!
=129	=129	=129	=129	=129	=129	=129	=129	=129
!	!	!	!LO:SIC:v:l:s=pec-	!	!	!	!LO:SIC:v:l:s=pec-	!
(>4C/	pec-	.	1c	pe-	1g	pec-	1ee	pe-
4G\	.	.	.	.	.	.	.	.
4E\	.	.	.	.	.	.	.	.
4C/)	.	.	.	.	.	.	.	.
!LO:LB:g=original	!	!	!	!	!	!	!	!
=130	=130	=130	=130	=130	=130	=130	=130	=130
(>4F\	-ca-	.	1c	-ca-	1a-X	-ca-	1ff	-ca-
4c\	.	.	.	.	.	.	.	.
4A-X\	.	.	.	.	.	.	.	.
4F\)	.	.	.	.	.	.	.	.
=131	=131	=131	=131	=131	=131	=131	=131	=131
(4F\	-to-	.	1c	-to-	1a-X	-to-	1ff	-to-
4D-X/	.	.	.	.	.	.	.	.
4C/	.	.	.	.	.	.	.	.
4BBn/)	.	.	.	.	.	.	.	.
=132	=132	=132	=132	=132	=132	=132	=132	=132
1C	-rum,	.	1c	-rum	1g	-rum	1ee	-rum
=133	=133	=133	=133	=133	=133	=133	=133	=133
2C/	et	.	4r	.	4r	.	4r	.
.	.	.	2c\	et	(>4g\	et	4ee\	et
(>4E\	ex-	.	.	.	4b-\)	.	(>4gg\	ex-
4C\)	.	.	4c\	ex-	4g\	ex-	4ee\)	.
=134	=134	=134	=134	=134	=134	=134	=134	=134
4F\	-pe-	.	4c\	-pec-	4an\	-pe-	4ff\	-pe-
2F\	-cto	.	4c\	-to	4a\	-cto	4ff\	-cto
.	.	.	2r	.	2r	.	2r	.
4r	.	.	.	.	.	.	.	.
!	!	!	!	!	!LO:LB:g=original	!	!LO:LB:g=original	!
=135	=135	=135	=135	=135	=135	=135	=135	=135
4.C/	re-	.	4.c\	re-	4.g\	re-	4.ee\	re-
8C/	-sur-	.	8c\	-sur-	8g\	-sur-	8ee\	-sur-
4E\	-re-	.	4c\	-rec-	4b-\	-rec-	4gg\	-re-
4C/	-cti-	.	4c\	-ti-	4g\	-ti-	4ee\	-cti-
=136	=136	=136	=136	=136	=136	=136	=136	=136
4F\	-o-	.	4c\	-o-	4a\	-o-	4ff\	-o-
2F\	-nem.	.	4c\	-nem,	4a\	-nem	4ff\	-nem
.	.	.	2r	.	2r	.	2r	.
4r	.	.	.	.	.	.	.	.
!LO:LB:g=original	!	!	!LO:LB:g=original	!	!	!	!	!
=137	=137	=137	=137	=137	=137	=137	=137	=137
(>4F\	mor-	.	1A-X	mor-	1f	mor-	1cc	mor-
4G\	.	.	.	.	.	.	.	.
4A-X\	.	.	.	.	.	.	.	.
4F\)	.	.	.	.	.	.	.	.
=138	=138	=138	=138	=138	=138	=138	=138	=138
1En	-tu-	.	1B-X	-tu-	1en	-tu-	1dd-X	-tu-
=139	=139	=139	=139	=139	=139	=139	=139	=139
(>4F\	-o-	.	(>1A-X	-o-	(>1f	-o-	1cc	-o-
4C/)	.	.	.	.	.	.	.	.
(>4AA-X/	-rum	.	.	.	.	.	.	.
4FF/)	.	.	.	.	.	.	.	.
=140	=140	=140	=140	=140	=140	=140	=140	=140
(>4C/	mor-	.	[>1c)	.	1g	.	1b-X	.
4c\)	.	.	.	.	.	.	.	.
(>4G\	-tu-	.	.	.	.	.	.	.
4E\)	.	.	.	.	.	.	.	.
=141	=141	=141	=141	=141	=141	=141	=141	=141
(>4F\	-o-	.	1c]	.	1f)	.	1a-X	.
4c\	.	.	.	.	.	.	.	.
4A-X\	.	.	.	.	.	.	.	.
4F\)	.	.	.	.	.	.	.	.
=142	=142	=142	=142	=142	=142	=142	=142	=142
2C/	-rum	.	2c\	-rum	2en\	-rum	2g\	-rum
4r	.	.	4r	.	4r	.	4r	.
4C/	et	.	4c\	et	4e\	et	4g\	et
!	!	!	!	!	!LO:LB:g=original	!	!	!
=143	=143	=143	=143	=143	=143	=143	=143	=143
4F\	vi-	.	4c\	vi-	4f\	vi-	4an\	vi-
4F\	-tam	.	4c\	-tam	4f\	-tam	4a\	-tam
4r	.	.	4r	.	4r	.	4r	.
4C/	ven-	.	4e\	ven-	4g\	ven-	4b-X\	ven-
!LO:LB:g=original	!	!	!	!	!	!	!LO:LB:g=original	!
=144	=144	=144	=144	=144	=144	=144	=144	=144
4F\	-tu-	.	4f\	-tu-	4an\	-tu-	4cc\	-tu-
4F\	-ri	.	4f\	-ri	4a\	-ri	4cc\	-ri
4r	.	.	4r	.	4r	.	4r	.
4F\	ven-	.	4f\	ven-	4a\	ven-	4cc\	ven-
=145	=145	=145	=145	=145	=145	=145	=145	=145
2B-\	-tu-	.	2g\	-tu-	2b-\	-tu-	2dd\	-tu-
2c\	-ri	.	2c\	-ri	2g\	-ri	2ee\	-ri
!	!	!	!LO:LB:g=original	!	!	!	!	!
=146	=146	=146	=146	=146	=146	=146	=146	=146
!LO:SIC:v:l:s=Sae-	!	!	!LO:SIC:v:l:s=sae-	!	!LO:SIC:v:l:s=sae-	!	!LO:SIC:v:l:s=sae-	!
(>4F\	Se-	.	4c\	se-	(>4a\	se-	(>4ff\	se-
4C\)	.	.	4c\	-cu-	8g\L	.	8ee\L	.
.	.	.	.	.	8b-\J)	.	8dd\J)	.
4F\	-cu-	.	2f\	-li	4a\	-cu-	4cc\	-cu-
4B-\	-li	.	.	.	4b-\	-li	4dd\	-li
=147	=147	=147	=147	=147	=147	=147	=147	=147
(>4A\	A-	.	(>4f\	A-	(>4a\	A-	4ee\	A-
4B-\	.	.	4d\	.	4b-\	.	4gg\	.
4c\	.	.	2c\)	.	4a\	.	4ff\	.
4C/)	.	.	.	.	4g\)	.	4ee\	.
=148	=148	=148	=148	=148	=148	=148	=148	=148
2F\	-men	.	2c\	-men	2a\	-men	2ff\	-men
2C/	A-	.	2c\	a-	2g\	a-	2ee\	a-
=149	=149	=149	=149	=149	=149	=149	=149	=149
2F\	-men	.	2c\	-men	2a\	-men	2ff\	-men
2C/	A-	.	2c\	a-	2g\	A-	2ee\	a-
=150	=150	=150	=150	=150	=150	=150	=150	=150
1FF	-men.	.	1c	-men.	1a	-men.	1ff	-men.
==	==	==	==	==	==	==	==	==
*-	*-	*-	*-	*-	*-	*-	*-	*-
!!!system-decoration: [(s1,s2,s3,s4)]
!!!RDF**kern: > = above
!!!RDF**kern: < = below
!!!EED: Antoni Szymański
!!!EST: 2021-02-05
!!!ENC: Andrzej Kubiczek
!!!END: 2021-01-31
